X:478
T:Wimbleton House. (p).1701.PLFD.478
M:4/4
L:1/4
Q:1/2=100
S:Playford, Dancing Master,11th Ed.,1701.
O:England
Z:Chris Partington.
K:Bb
G2dc/B/|AGA/B/c/A/|^FDGd|c/B/A/G/gG|A^FG2:|
d>efd|c>BAB|cA^FD|d>efd|
cBg2|g^fg2|d>efd|c>BAB|
GA^FD|d>ddc/B/|A/B/c/A/dG|A^FG2|]
